X: 1
T: the Fiddler's Wife
C: Jon Berger
R: waltz
N: Tune for dance by the same name, by Alan P. Winsston
S: Kalia Kliban's message on the ECD list 2020-3-10
Z: 2020 John Chambers <jc:trillian.mit.edu>
M: 3/4
L: 1/8
K: G
dc |\
"G"B2 d2 g2 | g2 d2 B2 | "C"cB cd e2 | "G"d4 dc |\
"G"B2 d2 g2 | "C"c2 e2 a2 | "G"b2 a2 g2 | "D"af dc BA |
y2 |\
"G"B2 d2 g2 | g2 d2 B2 | "C"cB cd e2 | "G"d4 dc |\
"G"B2 d2 g2 | "C"c2 e2 a2 | "D"gf ed ef | "G"g4 |]
fg |\
"D"af dc BA | "G"GA Bc dg | "C"ec AG FE | "D"DE FG Ac |\
"Em"BA GF E2 | "Am"cB AG "B"F2 | "Em"gf ed "A"^cA | "D"d2 BcdB ||
y2 |\
"Am"e2 AB cA | "G"d2 GA BG | "C"ce dc BA | "D"GF EF D2 |\
"C"EG cB AG | "D"FA dc Bc | "G"dg ba "D"gf | "G"g4 |]
